material/.icons/material/file-table-box.svg

<?xml version="1.0" encoding="UTF-8"?><!DOCTYPE svg PUBLIC "-//W3C//DTD SVG 1.1//EN" "http://www.w3.org/Graphics/SVG/1.1/DTD/svg11.dtd"><svg xmlns="http://www.w3.org/2000/svg" xmlns:xlink="http://www.w3.org/1999/xlink" version="1.1" id="mdi-file-table-box" width="24" height="24" viewBox="0 0 24 24"><path d="M19 3H5C3.89 3 3 3.89 3 5V19C3 20.1 3.9 21 5 21H19C20.1 21 21 20.1 21 19V5C21 3.89 20.1 3 19 3M9 18H6V16H9V18M9 15H6V13H9V15M9 12H6V10H9V12M13 18H10V16H13V18M13 15H10V13H13V15M13 12H10V10H13V12Z" /></svg>

<svg xmlns="http://www.w3.org/2000/svg" viewBox="0 0 24 24"><path d="M19 3H5c-1.11 0-2 .89-2 2v14c0 1.1.9 2 2 2h14c1.1 0 2-.9 2-2V5a2 2 0 00-2-2M9 18H6v-2h3v2m0-3H6v-2h3v2m0-3H6v-2h3v2m4 6h-3v-2h3v2m0-3h-3v-2h3v2m0-3h-3v-2h3v2z"/></svg>
